src/shared/assets/character/main/character-union.svg

<svg width="54" height="54" viewBox="0 0 54 54" fill="none" xmlns="http://www.w3.org/2000/svg">
<g filter="url(#filter0_d_983_15344)">
<path d="M32.1201 22.6719C32.9711 22.8646 33.5618 23.4535 33.6182 24.1562C33.6835 24.971 33.7529 26.2694 33.7529 28.125C33.7529 29.9806 33.6835 31.279 33.6182 32.0938C33.5533 32.9027 32.7797 33.5611 31.7168 33.6377C30.9031 33.6963 29.7181 33.75 28.1143 33.75C26.5099 33.75 25.3245 33.6964 24.5107 33.6377C23.4481 33.5609 22.6742 32.9026 22.6094 32.0938C22.6088 32.0863 22.609 32.0788 22.6084 32.0713C22.7431 32.1031 22.8844 32.127 23.0312 32.1377C23.8432 32.1964 25.0261 32.25 26.627 32.25C28.2274 32.25 29.4098 32.1963 30.2217 32.1377C31.2821 32.0611 32.0544 31.4027 32.1191 30.5938C32.1843 29.779 32.2529 28.4806 32.2529 26.625C32.2529 24.7812 32.1849 23.4876 32.1201 22.6719ZM25.627 20C27.2276 20 28.4098 20.0536 29.2217 20.1123C30.2822 20.1889 31.0545 20.8472 31.1191 21.6562C31.1843 22.471 31.2529 23.7694 31.2529 25.625C31.2529 27.4806 31.1843 28.779 31.1191 29.5938C31.0545 30.4027 30.2822 31.0611 29.2217 31.1377C28.4097 31.1964 27.2276 31.25 25.627 31.25C24.026 31.25 22.8432 31.1964 22.0312 31.1377C20.9707 31.0611 20.1985 30.4027 20.1338 29.5938C20.0686 28.779 20 27.4806 20 25.625C20 23.7694 20.0686 22.471 20.1338 21.6562C20.1985 20.8473 20.9707 20.1889 22.0312 20.1123C22.8432 20.0536 24.026 20 25.627 20Z" fill="white"/>
</g>
<defs>
<filter id="filter0_d_983_15344" x="0" y="0" width="53.7529" height="53.75" filterUnits="userSpaceOnUse" color-interpolation-filters="sRGB">
<feFlood flood-opacity="0" result="BackgroundImageFix"/>
<feColorMatrix in="SourceAlpha" type="matrix" values="0 0 0 0 0 0 0 0 0 0 0 0 0 0 0 0 0 0 127 0" result="hardAlpha"/>
<feOffset/>
<feGaussianBlur stdDeviation="10"/>
<feComposite in2="hardAlpha" operator="out"/>
<feColorMatrix type="matrix" values="0 0 0 0 0 0 0 0 0 0 0 0 0 0 0 0 0 0 0.3 0"/>
<feBlend mode="normal" in2="BackgroundImageFix" result="effect1_dropShadow_983_15344"/>
<feBlend mode="normal" in="SourceGraphic" in2="effect1_dropShadow_983_15344" result="shape"/>
</filter>
</defs>
</svg>

<svg xmlns="http://www.w3.org/2000/svg" fill="none" viewBox="0 0 54 54"><g filter="url(#a)"><path fill="#fff" d="M32.12 22.672c.851.193 1.442.781 1.498 1.484.066.815.135 2.113.135 3.969s-.07 3.154-.135 3.969c-.065.809-.838 1.467-1.901 1.544a51 51 0 0 1-3.603.112c-1.604 0-2.79-.054-3.603-.112-1.063-.077-1.837-.735-1.902-1.544v-.023q.201.05.422.067c.812.058 1.995.112 3.596.112s2.783-.054 3.595-.112c1.06-.077 1.832-.735 1.897-1.544.065-.815.134-2.113.134-3.969 0-1.844-.068-3.137-.133-3.953M25.627 20c1.6 0 2.783.054 3.595.112 1.06.077 1.832.735 1.897 1.544.065.815.134 2.113.134 3.969s-.069 3.154-.134 3.969c-.064.809-.837 1.467-1.897 1.544-.812.058-1.994.112-3.595.112s-2.784-.054-3.596-.112c-1.06-.077-1.832-.735-1.897-1.544-.065-.815-.134-2.113-.134-3.969s.069-3.154.134-3.969c.064-.809.837-1.467 1.897-1.544A50 50 0 0 1 25.627 20"/></g><defs><filter id="a" width="53.753" height="53.75" x="0" y="0" color-interpolation-filters="sRGB" filterUnits="userSpaceOnUse"><feFlood flood-opacity="0" result="BackgroundImageFix"/><feColorMatrix in="SourceAlpha" result="hardAlpha" values="0 0 0 0 0 0 0 0 0 0 0 0 0 0 0 0 0 0 127 0"/><feOffset/><feGaussianBlur stdDeviation="10"/><feComposite in2="hardAlpha" operator="out"/><feColorMatrix values="0 0 0 0 0 0 0 0 0 0 0 0 0 0 0 0 0 0 0.3 0"/><feBlend in2="BackgroundImageFix" result="effect1_dropShadow_983_15344"/><feBlend in="SourceGraphic" in2="effect1_dropShadow_983_15344" result="shape"/></filter></defs></svg>
